X: 30583
T: One For Breakfast
R: jig
M: 6/8
K: Emajor
|:efe a2g|efe dcB|efg b2e|fec B3|
efe a2g|efe dcB|efg fed|1 Bcd e3:|2 Bcd e2b||
|:b2g g2e|efe dcB|gfg a2g|fgf fga|
b2g g2e|efe dcB|Bcd efg|1 fed e2b:|2 fed e3||

